contributed-vectors/bosesleep.svg

<svg xmlns="http://www.w3.org/2000/svg" xmlns:xlink="http://www.w3.org/1999/xlink" xml:space="preserve" viewBox="0 0 192 192"><image xlink:href="D:\DESIGN\туццццц\Новая папка (4)\marvin\30E0AF75.jpg" width="241" height="241" overflow="visible" transform="translate(2.215 -221) scale(.7734)"/><path fill="#B1B5BE" d="M.1 96c0-17.6-.3-35.3.1-52.9.4-17.2 7.6-30.6 23.5-38.6C30.3 1.2 37.5.1 44.8.1c34.7-.1 69.4-.2 104.1.1 17 .2 30.4 7.5 38.4 23.1 3.4 6.7 4.6 14 4.6 21.5.1 34.7.2 69.3-.1 104-.2 17-7.4 30.4-23 38.4-6.8 3.5-14.2 4.7-21.7 4.7-34.7.1-69.3.2-104-.1-17-.2-30.4-7.4-38.4-23C1 161.7 0 153.9 0 146c.1-16.7.1-33.4.1-50zm131.6-7.1c9.5-.5 18.1-5.7 23.2-16.1.4-.9.4-2.5-.1-3.2-.4-.6-2-.8-2.9-.6-8.9 1.9-17.2-1-22.2-8s-5-15.8-.3-23.6c.5-.9.8-2.5.4-3.2-.5-.7-2-1.2-3-1.1-15 1.5-25.8 14.3-25 29.5.7 14.6 13.1 26.3 29.9 26.3z"/><path fill="#FFF" d="M131.7 88.9c-16.8 0-29.2-11.6-30-26.3-.8-15.2 10.1-28 25-29.5 1-.1 2.6.3 3 1.1.5.7.1 2.3-.4 3.2-4.8 7.8-4.7 16.6.3 23.6 4.9 7 13.3 9.9 22.2 8 .9-.2 2.5 0 2.9.6.5.8.5 2.3.1 3.2-5 10.4-13.6 15.5-23.1 16.1zM148 74.5c-9.2.1-16.8-3.2-22.2-10.8-5.4-7.6-6-16-2.8-24.7-8.5 1.4-15.9 11-16.4 21-.5 10.6 6.7 20.4 17.1 23.2 9.1 2.5 20.6-1.5 24.3-8.7z"/><path fill="#B1B5BE" d="M148 74.5c-3.7 7.1-15.2 11.2-24.3 8.7-10.4-2.8-17.7-12.6-17.2-23.2.5-10 7.9-19.6 16.4-21-3.2 8.8-2.6 17.1 2.8 24.7 5.5 7.6 13.1 10.9 22.3 10.8z"/></svg>

<?xml version="1.0" encoding="utf-8"?>
<!-- Generator: Adobe Illustrator 22.1.0, SVG Export Plug-In . SVG Version: 6.00 Build 0)  -->
<svg version="1.1" id="Слой_1" xmlns="http://www.w3.org/2000/svg" xmlns:xlink="http://www.w3.org/1999/xlink" x="0px" y="0px"
	 viewBox="0 0 192 192" enable-background="new 0 0 192 192" xml:space="preserve">
<image overflow="visible" width="241" height="241" xlink:href="D:\DESIGN\туццццц\Новая папка (4)\marvin\30E0AF75.jpg"  transform="matrix(0.7734 0 0 0.7734 2.215 -221)">
</image>
<path fill="#B1B5BE" d="M0.1,96c0-17.6-0.3-35.3,0.1-52.9C0.6,25.9,7.8,12.5,23.7,4.5c6.6-3.3,13.8-4.4,21.1-4.4
	C79.5,0,114.2-0.1,148.9,0.2c17,0.2,30.4,7.5,38.4,23.1c3.4,6.7,4.6,14,4.6,21.5c0.1,34.7,0.2,69.3-0.1,104
	c-0.2,17-7.4,30.4-23,38.4c-6.8,3.5-14.2,4.7-21.7,4.7c-34.7,0.1-69.3,0.2-104-0.1c-17-0.2-30.4-7.4-38.4-23
	c-3.7-7.1-4.7-14.9-4.7-22.8C0.1,129.3,0.1,112.6,0.1,96C0.1,96,0.1,96,0.1,96z M131.7,88.9c9.5-0.5,18.1-5.7,23.2-16.1
	c0.4-0.9,0.4-2.5-0.1-3.2c-0.4-0.6-2-0.8-2.9-0.6c-8.9,1.9-17.2-1-22.2-8c-5-7-5-15.8-0.3-23.6c0.5-0.9,0.8-2.5,0.4-3.2
	c-0.5-0.7-2-1.2-3-1.1c-15,1.5-25.8,14.3-25,29.5C102.5,77.2,114.9,88.9,131.7,88.9z"/>
<path fill="#FFFFFF" d="M131.7,88.9c-16.8,0-29.2-11.6-30-26.3c-0.8-15.2,10.1-28,25-29.5c1-0.1,2.6,0.3,3,1.1
	c0.5,0.7,0.1,2.3-0.4,3.2c-4.8,7.8-4.7,16.6,0.3,23.6c4.9,7,13.3,9.9,22.2,8c0.9-0.2,2.5,0,2.9,0.6c0.5,0.8,0.5,2.3,0.1,3.2
	C149.8,83.2,141.2,88.3,131.7,88.9z M148,74.5c-9.2,0.1-16.8-3.2-22.2-10.8c-5.4-7.6-6-16-2.8-24.7c-8.5,1.4-15.9,11-16.4,21
	c-0.5,10.6,6.7,20.4,17.1,23.2C132.8,85.7,144.3,81.7,148,74.5z"/>
<path fill="#B1B5BE" d="M148,74.5c-3.7,7.1-15.2,11.2-24.3,8.7C113.3,80.4,106,70.6,106.5,60c0.5-10,7.9-19.6,16.4-21
	c-3.2,8.8-2.6,17.1,2.8,24.7C131.2,71.3,138.8,74.6,148,74.5z"/>
</svg>
